!!!COM: Charles Gounod
!!!CNT: Francais
!!!TXO: Francais
!!!OTL: "Chanson de pa^tre"
!!!LYR: Augier
!!!OPR: 
!!!OPS: Op. 
!!!ONM: No.
!!!ENC: Emily Thomas
!!!YOR: CD Sheet Music French Art Songs, The Ultimate Collection
!!!YOR: CD Sheet Music, LLC 2003
!!!ODT: 1850/
!!NB: Vocal melody and text encoded.
**kern	**silbe
=1	=1
*clefG2	*
*k[f#c#g#]	*
*M2/4	*
*MM[Andantino]	*
2r	.
=2	=2
2r	.
=3	=3
2r	.
=4	=4
2r	.
=5	=5
2r	.
=6	=6
2r	.
=7	=7
2r	.
=8	=8
2r	.
=9	=9
2r	.
=10	=10
2r	.
=11	=11
2r	.
=12	=12
2r	.
=13	=13
2r	.
=14	=14
2r	.
=15	=15
2r	.
=16	=16
2r	.
=17	=17
2r	.
=18	=18
2r	.
=19	=19
2r	.
=20	=20
2r	.
=21	=21
8r	.
{8a	{Brou-
[4ee	-tez
=22	=22
2ee]	|
=23	=23
8r	.
8a	le
[4ee	thym,
=24	=24
8ee]	|
8ee	brou-
8ee	-tez
8ee	mes
=25	=25
8ff#	che\-
24ee	|
24dd	|
24cc#	|
4ee}	-vres,}
=26	=26
8r	.
{8ee	{Le
8b	ser-
8dd	-po-
=27	=27
8a	-let
8cc#	a-
8b	-vec
24b	le
24cc#	|
24dd	|
=28	=28
[2ee	thym,
=29	=29
8ee]	|
8f#	a-
8b	-vec
24g#	le
24a	|
24b	|
=30	=30
[2a	thym.
=31	=31
8a]}	|}
8r	.
4r	.
=32	=32
4r	.
{4dd	{La
=33	=33
4cc#	blonde
8b	A-
8ee	-gle-
=34	=34
4ee	-e/
8a	de
24g#	ses
24a	|
24g#	|
=35	=35
4f#	le\-
4e}	-vres,}
=36	=36
8r	.
{8ee	{Tou-
8dd	-cha
8ee	les
=37	=37
8cc#	mien-
24cc#	-nes
24dd	|
24cc#	|
8.b	ce
16g#	ma-
=38	=38
[2a	-tin,
=39	=39
8a]}	|}
8r	.
4r	.
=40	=40
{8a	{Et
8ee	j'at-
4ee	-tends
=41	=41
8ee	que
8ff#	Ve/-
[4ee	-nus
=42	=42
4ee]	|
16ff#	se
16ee	|
16ff#	|
16gg#	|
=43	=43
4aa	le\-
4ee}	-ve}
=44	=44
8r	.
{8ee	{Pour
8b	la
8bq	re-
8ee	|
=45	=45
8a	-join-
8aq	-dre
8ee	|
8g#	sur
8g#q	la
8ee	|
=46	=46
4f#	gre\-
16g#q	|
16f#q	|
[4e	-ve.
=47	=47
8e]}	|}
8r	.
4r	.
=48	=48
{4.ee	{Brille
8ee	en-
=49	=49
4ee	-fin
8r	.
8ee	e/-
=50	=50
4aa	-toi-
8gg#	-le
8ee	d'a-
=51	=51
2ee}	-mour!}
=52	=52
8r	.
{8ee	{Et
8ee	dans
8ee	les
=53	=53
8ff#	cieux,
8ee	e/-
8ee	-teins
24b	le
24cc#	|
24b	|
=54	=54
[2a	jour.
=55	=55
8a]}	|}
8r	.
4r	.
=56	=56
8r	.
{8a	{Brou-
[4ee	-tez,
=57	=57
2ee]	|
=58	=58
8r	.
8ee	brou-
8ee	-tez
8ee	le
=59	=59
8ee	thym,
8ee	brou-
8ee	-tez
8ee	mes
=60	=60
8ff#	che-
24ee	|
24dd	|
24cc#	|
[4ee	-vres,
=61	=61
8ee]}	|}
8r	.
8r	.
{8b	{Brou-
=62	=62
2a	-tez.
=63	=63
8bq	|
2a	|
=64	=64
8bq	|
[2a	|
=65	=65
4a]}	|}
4r	.
==	==
*-	*-
